X:6192
T:German Minuet,(harmony). BC.46b
M:3/4
L:1/4
Q:100
S:Benjamin Cooke MS.circa 1770, F.Kidson Coll.
R:Minuet
O:England
A:x
Z:vmp.John Bagnall
K:D
f | f2 e | d/A/ F ({ef}g) | f2g | d/A/ F F | G e G | F d F | E E D | A2
 |!|
F | F2 A | G/F/ E>G | G2 B | A/G/ F f | f e d | c d e | d/A/ G E | F2 |]
